images_elementary_svg/cmd/lc_resetattributes.svg

<?xml version="1.0" encoding="UTF-8" standalone="no"?>
<svg
   xmlns:dc="http://purl.org/dc/elements/1.1/"
   xmlns:cc="http://creativecommons.org/ns#"
   xmlns:rdf="http://www.w3.org/1999/02/22-rdf-syntax-ns#"
   xmlns:svg="http://www.w3.org/2000/svg"
   xmlns="http://www.w3.org/2000/svg"
   xmlns:xlink="http://www.w3.org/1999/xlink"
   xmlns:sodipodi="http://sodipodi.sourceforge.net/DTD/sodipodi-0.dtd"
   xmlns:inkscape="http://www.inkscape.org/namespaces/inkscape"
   height="24"
   width="24"
   version="1.1"
   id="svg53"
   sodipodi:docname="lc_resetattributes.svg"
   inkscape:version="0.92.3 (2405546, 2018-03-11)"
   inkscape:export-filename="/home/rizmut/Dokumen/Rizmut/Github/libreoffice-style-elementary/images_elementary/cmd/lc_resetattributes.png"
   inkscape:export-xdpi="96"
   inkscape:export-ydpi="96">
  <metadata
     id="metadata59">
    <rdf:RDF>
      <cc:Work
         rdf:about="">
        <dc:format>image/svg+xml</dc:format>
        <dc:type
           rdf:resource="http://purl.org/dc/dcmitype/StillImage" />
      </cc:Work>
    </rdf:RDF>
  </metadata>
  <defs
     id="defs57">
    <radialGradient
       xlink:href="#linearGradient12733"
       id="radialGradient12748"
       gradientUnits="userSpaceOnUse"
       gradientTransform="matrix(0.8794595,-0.11013256,0.06311856,0.75017698,-1091.3046,-829.80154)"
       cx="1162.077"
       cy="1294.5182"
       fx="1162.077"
       fy="1294.5182"
       r="11.9021" />
    <linearGradient
       id="linearGradient12733">
      <stop
         style="stop-color:#000000;stop-opacity:1;"
         offset="0"
         id="stop12735" />
      <stop
         style="stop-color:#000000;stop-opacity:0;"
         offset="1"
         id="stop12737" />
    </linearGradient>
    <linearGradient
       xlink:href="#linearGradient1125"
       id="linearGradient1127"
       x1="14.019018"
       y1="6.002409"
       x2="14.019018"
       y2="18.964161"
       gradientUnits="userSpaceOnUse"
       gradientTransform="translate(0.03727421,1.1377668)" />
    <linearGradient
       id="linearGradient1125">
      <stop
         style="stop-color:#fe9ab8;stop-opacity:1"
         offset="0"
         id="stop1121" />
      <stop
         style="stop-color:#f4679d;stop-opacity:1"
         offset="1"
         id="stop1123" />
    </linearGradient>
    <linearGradient
       xlink:href="#linearGradient964"
       id="linearGradient1105"
       x1="13"
       y1="7"
       x2="13"
       y2="14"
       gradientUnits="userSpaceOnUse"
       gradientTransform="matrix(0.93893529,0,0,0.93893529,1.145619,1.8280472)" />
    <linearGradient
       id="linearGradient964">
      <stop
         id="stop956"
         style="stop-color:#ffffff;stop-opacity:1"
         offset="0" />
      <stop
         id="stop958"
         style="stop-color:#ffffff;stop-opacity:0.23529412"
         offset="0" />
      <stop
         id="stop960"
         style="stop-color:#ffffff;stop-opacity:0.15686275"
         offset="1" />
      <stop
         id="stop962"
         style="stop-color:#ffffff;stop-opacity:0.39215687"
         offset="1" />
    </linearGradient>
    <linearGradient
       id="linearGradient2867-449-88-871-390-598-476-591-434-148-57-177-641-289-620-227-114-444-680-744-4-1-5">
      <stop
         id="stop5430-5-0-9"
         style="stop-color:#737373;stop-opacity:1"
         offset="0" />
      <stop
         id="stop5432-2-0-0"
         style="stop-color:#636363;stop-opacity:1"
         offset="0.26238" />
      <stop
         id="stop5434-9-6-8"
         style="stop-color:#4b4b4b;stop-opacity:1"
         offset="0.704952" />
      <stop
         id="stop5436-2-7-0"
         style="stop-color:#3f3f3f;stop-opacity:1"
         offset="1" />
    </linearGradient>
    <radialGradient
       inkscape:collect="always"
       xlink:href="#linearGradient2867-449-88-871-390-598-476-591-434-148-57-177-641-289-620-227-114-444-680-744-4-1-5"
       id="radialGradient888"
       cx="15.223962"
       cy="-1.1769136"
       fx="15.223962"
       fy="-1.1769136"
       r="9.0984249"
       gradientTransform="matrix(-2.9767127,-0.01637167,0.01620268,-2.9459839,60.560392,-4.8812846)"
       gradientUnits="userSpaceOnUse" />
  </defs>
  <sodipodi:namedview
     pagecolor="#ffffff"
     bordercolor="#666666"
     borderopacity="1"
     objecttolerance="10"
     gridtolerance="10"
     guidetolerance="10"
     inkscape:pageopacity="0"
     inkscape:pageshadow="2"
     inkscape:window-width="1316"
     inkscape:window-height="732"
     id="namedview55"
     showgrid="true"
     inkscape:snap-global="false"
     inkscape:zoom="9.8333331"
     inkscape:cx="4.563961"
     inkscape:cy="16.473981"
     inkscape:window-x="50"
     inkscape:window-y="0"
     inkscape:window-maximized="1"
     inkscape:current-layer="g910">
    <inkscape:grid
       type="xygrid"
       id="grid912" />
  </sodipodi:namedview>
  <linearGradient
     id="a">
    <stop
       offset="0"
       id="stop2" />
    <stop
       offset="1"
       stop-opacity="0"
       id="stop4" />
  </linearGradient>
  <linearGradient
     id="b">
    <stop
       offset="0"
       stop-color="#fff"
       id="stop7" />
    <stop
       offset="1"
       stop-color="#fff"
       stop-opacity="0"
       id="stop9" />
  </linearGradient>
  <radialGradient
     id="c"
     cx="22.571428"
     cy="30.857143"
     gradientTransform="matrix(.8169656 0 0 .1566989 -6.143301 14.385012)"
     gradientUnits="userSpaceOnUse"
     r="15.571428"
     xlink:href="#a" />
  <linearGradient
     id="d"
     gradientTransform="matrix(0.498259,0,0,0.4886,0.200024,-2.273552)"
     gradientUnits="userSpaceOnUse"
     x1="23.30562"
     x2="14.388516"
     y1="24.843527"
     y2="9.5902243"
     xlink:href="#linearGradient2867-449-88-871-390-598-476-591-434-148-57-177-641-289-620-227-114-444-680-744-4-1-5">
    <stop
       offset="0"
       stop-color="#1f1f1f"
       id="stop13" />
    <stop
       offset="1"
       stop-color="#5c5c5c"
       id="stop15" />
  </linearGradient>
  <linearGradient
     id="e"
     gradientTransform="matrix(.57894734 0 0 .55555556 34.074641 10.496731)"
     gradientUnits="userSpaceOnUse"
     x1="11.192374"
     x2="11.192374"
     y1="-.740988"
     y2="30.298229">
    <stop
       offset="0"
       stop-color="#f8b17e"
       id="stop18" />
    <stop
       offset=".31209752"
       stop-color="#e35d4f"
       id="stop20" />
    <stop
       offset=".57054454"
       stop-color="#c6262e"
       id="stop22" />
    <stop
       offset="1"
       stop-color="#690b54"
       id="stop24" />
  </linearGradient>
  <linearGradient
     id="f"
     gradientUnits="userSpaceOnUse"
     x1="41.225124"
     x2="41.225124"
     y1="23.238064"
     y2="7.39004">
    <stop
       offset="0"
       stop-color="#791235"
       id="stop27" />
    <stop
       offset="1"
       stop-color="#dd3b27"
       id="stop29" />
  </linearGradient>
  <linearGradient
     id="g"
     gradientTransform="matrix(.3077295 -.29497944 .3077295 .29497944 25.944842 17.144019)"
     gradientUnits="userSpaceOnUse"
     x1="36.010902"
     x2="16.331276"
     xlink:href="#b"
     y1="13.022708"
     y2="32.702335" />
  <linearGradient
     id="h"
     gradientTransform="matrix(.3077295 -.29497944 .3077295 .29497944 25.634631 17.292858)"
     gradientUnits="userSpaceOnUse"
     x1="28.449389"
     x2="16.331276"
     xlink:href="#b"
     y1="20.584223"
     y2="32.702335" />
  <radialGradient
     id="i"
     cx="11.03125"
     cy="17.125"
     gradientTransform="matrix(.63623879 0 0 .14315373 8.98149 18.449012)"
     gradientUnits="userSpaceOnUse"
     r="9.84375"
     xlink:href="#a" />
  <g
     transform="matrix(.85665357 0 0 .85665357 .143346 3.010275)"
     id="g39">
    <ellipse
       cx="12.296779"
       cy="19.220293"
       fill="url(#c)"
       opacity=".2"
       rx="12.72132"
       ry="2.440027"
       id="ellipse35" />
    <path
       d="m15.037981 14.520775h-5.1879961l-2.1519698 3.993063h-4.6820151l9.691091-18.02583272h4.804018l2.701782 17.97677772h-4.425161zm-3.992446-1.995775h4.520483l-.688018-7.968-4.186018 7.968"
       fill="url(#d)"
       opacity=".66"
       stroke="#000"
       stroke-linecap="round"
       stroke-linejoin="round"
       id="path37"
       style="fill-opacity:1;fill:url(#radialGradient888);opacity:1;stroke:#000000;stroke-opacity:0.49792531" />
    <path
       style="opacity:0.2;fill:#ffffff;fill-opacity:1;stroke:none;stroke-width:0.85665357;stroke-linecap:round;stroke-linejoin:round;stroke-opacity:0.49792534"
       d="M 11.029297 3.4277344 L 7.9785156 9.1035156 L 10.699219 4.4277344 L 15.15625 4.4277344 L 16.970703 15.576172 L 15.144531 3.4277344 L 11.029297 3.4277344 z M 9.3984375 13.740234 L 8.8300781 14.740234 L 9.1582031 14.740234 L 13.351562 14.740234 L 13.257812 13.740234 L 9.6054688 13.740234 L 9.3984375 13.740234 z M 7.9746094 16.576172 L 6.6367188 18.871094 L 6.7382812 18.871094 L 7.9746094 16.576172 z "
       transform="matrix(1.167333,0,0,1.167333,-0.16733252,-3.5139934)"
       id="path890" />
  </g>
  <g
     id="g910"
     transform="matrix(0.58097751,0,0,0.58097751,10.05654,11.508975)">
    <path
       id="path12731"
       d="M 11.851211,-0.43396491 3.9613,14.84207 2,20.667759 4.7287,21.291951 18.2015,21.500014 20.1628,19.731521 24,10.784973 25.409211,1.5425922 Z"
       style="opacity:1;fill:url(#radialGradient12748);fill-opacity:1;fill-rule:evenodd;stroke:none;stroke-width:0.99325329px;stroke-linecap:butt;stroke-linejoin:miter;stroke-opacity:1"
       inkscape:connector-curvature="0"
       sodipodi:nodetypes="ccccccccc" />
    <path
       id="path12152"
       d="M 2.4730742,20.642874 H 16.158874 l 4.3835,-7.714837 1.750411,-10.7329629 -1.1485,-1.1669925 -10.7837,0.062153 L 8.8341847,2.2087871 2.5097742,15.943828 Z"
       style="opacity:1;fill:url(#linearGradient1127);fill-opacity:1;fill-rule:evenodd;stroke:#e41b79;stroke-width:1.72123706;stroke-linecap:butt;stroke-linejoin:round;stroke-miterlimit:4;stroke-dasharray:none;stroke-opacity:0.5"
       inkscape:connector-curvature="0"
       sodipodi:nodetypes="ccccccccc" />
    <path
       id="path12154"
       d="M 4.502782,15.435321 15.661464,15.477 21.106548,3.3963012 20.738673,2.6638689 H 10.573947 L 4.5532967,15.49127 Z"
       style="opacity:0.5;fill:#ffffff;fill-opacity:0.5;fill-rule:evenodd;stroke:url(#linearGradient1105);stroke-width:1.72123706;stroke-linecap:butt;stroke-linejoin:round;stroke-miterlimit:4;stroke-dasharray:none;stroke-opacity:1"
       inkscape:connector-curvature="0"
       sodipodi:nodetypes="ccccccc" />
    <path
       id="path12165"
       d="m 4.1465444,16.003265 v 2.990634 H 16.021545"
       style="opacity:0.2;fill:none;fill-rule:evenodd;stroke:#ffffff;stroke-width:1.72123706;stroke-linecap:round;stroke-linejoin:round;stroke-miterlimit:4;stroke-dasharray:none;stroke-opacity:1"
       inkscape:connector-curvature="0"
       sodipodi:nodetypes="ccc" />
  </g>
</svg>

<?xml version="1.0" encoding="UTF-8" standalone="no"?>
<svg xmlns:rdf="http://www.w3.org/1999/02/22-rdf-syntax-ns#" xmlns="http://www.w3.org/2000/svg" height="24" width="24" version="1.1" xmlns:cc="http://creativecommons.org/ns#" xmlns:xlink="http://www.w3.org/1999/xlink" xmlns:dc="http://purl.org/dc/elements/1.1/">
 <metadata>
  <rdf:RDF>
   <cc:Work rdf:about="">
    <dc:format>image/svg+xml</dc:format>
    <dc:type rdf:resource="http://purl.org/dc/dcmitype/StillImage"/>
    <dc:title/>
   </cc:Work>
  </rdf:RDF>
 </metadata>
 <defs>
  <radialGradient id="radialGradient12748" gradientUnits="userSpaceOnUse" cy="1294.5" cx="1162.1" gradientTransform="matrix(.87946 -.11013 .063119 .75018 -1091.3 -829.8)" r="11.902">
   <stop offset="0"/>
   <stop stop-opacity="0" offset="1"/>
  </radialGradient>
  <linearGradient id="linearGradient1127" y2="18.964" gradientUnits="userSpaceOnUse" x2="14.019" gradientTransform="translate(.037274 1.1378)" y1="6.0024" x1="14.019">
   <stop stop-color="#fe9ab8" offset="0"/>
   <stop stop-color="#f4679d" offset="1"/>
  </linearGradient>
  <linearGradient id="linearGradient1105" y2="14" gradientUnits="userSpaceOnUse" x2="13" gradientTransform="matrix(.93894 0 0 .93894 1.1456 1.828)" y1="7" x1="13">
   <stop stop-color="#fff" offset="0"/>
   <stop stop-color="#fff" stop-opacity=".23529" offset="0"/>
   <stop stop-color="#fff" stop-opacity=".15686" offset="1"/>
   <stop stop-color="#fff" stop-opacity=".39216" offset="1"/>
  </linearGradient>
  <radialGradient id="radialGradient888" gradientUnits="userSpaceOnUse" cy="-1.1769" cx="15.224" gradientTransform="matrix(-2.9767 -.016372 .016203 -2.946 60.56 -4.8813)" r="9.0984">
   <stop stop-color="#737373" offset="0"/>
   <stop stop-color="#636363" offset=".26238"/>
   <stop stop-color="#4b4b4b" offset=".70495"/>
   <stop stop-color="#3f3f3f" offset="1"/>
  </radialGradient>
 </defs>
 <radialGradient id="c" gradientUnits="userSpaceOnUse" cy="30.857" cx="22.571" gradientTransform="matrix(.81697 0 0 .15670 -6.1433 14.385)" r="15.571">
  <stop offset="0"/>
  <stop stop-opacity="0" offset="1"/>
 </radialGradient>
 <g transform="matrix(.85665 0 0 .85665 .14335 3.0103)">
  <ellipse opacity=".2" rx="12.721" ry="2.44" cy="19.22" cx="12.297" fill="url(#c)"/>
  <path stroke-linejoin="round" d="m15.038 14.521h-5.188l-2.152 3.9931h-4.682l9.6911-18.026h4.804l2.7018 17.977h-4.4252zm-3.9924-1.9958h4.5205l-0.68802-7.968-4.186 7.968" stroke-opacity=".49793" stroke="#000" stroke-linecap="round" fill="url(#radialGradient888)"/>
  <path opacity=".2" d="m11.029 3.4277l-3.0505 5.6758 2.7205-4.6758h4.457l1.815 11.148-1.826-12.148-4.116-0.0003zm-1.6306 10.312l-0.5683 1h0.3281 4.1938l-0.094-1h-3.6525-0.2071zm-1.4238 2.836l-1.3379 2.295h0.1016l1.2363-2.295z" transform="matrix(1.1673 0 0 1.1673 -.16733 -3.514)" fill="#fff"/>
 </g>
 <g transform="matrix(.58098 0 0 .58098 10.057 11.509)">
  <g fill-rule="evenodd">
   <path d="m11.851-0.43396-7.8897 15.276-1.9613 5.826 2.7287 0.624 13.473 0.208 1.961-1.768 3.837-8.947 1.409-9.2424z" fill="url(#radialGradient12748)"/>
   <path stroke-linejoin="round" d="m2.4731 20.643h13.686l4.3835-7.7148 1.7504-10.733-1.1485-1.167-10.784 0.062153-1.5258 1.1188-6.3244 13.735z" stroke-opacity=".5" stroke="#e41b79" stroke-width="1.7212" fill="url(#linearGradient1127)"/>
   <path opacity=".5" stroke-linejoin="round" d="m4.5028 15.435 11.158 0.042 5.446-12.081-0.368-0.7321h-10.165l-6.0207 12.827z" fill-opacity=".5" stroke="url(#linearGradient1105)" stroke-width="1.7212" fill="#fff"/>
  </g>
  <path opacity=".2" stroke-linejoin="round" d="m4.1465 16.003v2.9906h11.876" stroke="#fff" stroke-linecap="round" stroke-width="1.7212" fill="none"/>
 </g>
</svg>
